packages/assets/static/images/icons/credit.svg

<svg width="24" height="24" viewBox="0 0 24 24" xmlns="http://www.w3.org/2000/svg">
<path d="M21.5 4.5H3.5C3.10218 4.5 2.72064 4.65804 2.43934 4.93934C2.15804 5.22064 2 5.60218 2 6V18C2 18.3978 2.15804 18.7794 2.43934 19.0607C2.72064 19.342 3.10218 19.5 3.5 19.5H21.5C21.8978 19.5 22.2794 19.342 22.5607 19.0607C22.842 18.7794 23 18.3978 23 18V6C23 5.60218 22.842 5.22064 22.5607 4.93934C22.2794 4.65804 21.8978 4.5 21.5 4.5ZM21.5 6V8.25H3.5V6H21.5ZM21.5 18H3.5V9.75H21.5V18ZM20 15.75C20 15.9489 19.921 16.1397 19.7803 16.2803C19.6397 16.421 19.4489 16.5 19.25 16.5H16.25C16.0511 16.5 15.8603 16.421 15.7197 16.2803C15.579 16.1397 15.5 15.9489 15.5 15.75C15.5 15.5511 15.579 15.3603 15.7197 15.2197C15.8603 15.079 16.0511 15 16.25 15H19.25C19.4489 15 19.6397 15.079 19.7803 15.2197C19.921 15.3603 20 15.5511 20 15.75ZM14 15.75C14 15.9489 13.921 16.1397 13.7803 16.2803C13.6397 16.421 13.4489 16.5 13.25 16.5H11.75C11.5511 16.5 11.3603 16.421 11.2197 16.2803C11.079 16.1397 11 15.9489 11 15.75C11 15.5511 11.079 15.3603 11.2197 15.2197C11.3603 15.079 11.5511 15 11.75 15H13.25C13.4489 15 13.6397 15.079 13.7803 15.2197C13.921 15.3603 14 15.5511 14 15.75Z"/>
</svg>

<svg viewBox="0 0 24 24" xmlns="http://www.w3.org/2000/svg" aria-hidden="true" fill="currentColor"><path d="M21.5 4.5h-18A1.5 1.5 0 0 0 2 6v12a1.5 1.5 0 0 0 1.5 1.5h18A1.5 1.5 0 0 0 23 18V6a1.5 1.5 0 0 0-1.5-1.5m0 1.5v2.25h-18V6zm0 12h-18V9.75h18zM20 15.75a.75.75 0 0 1-.75.75h-3a.75.75 0 1 1 0-1.5h3a.75.75 0 0 1 .75.75m-6 0a.75.75 0 0 1-.75.75h-1.5a.75.75 0 1 1 0-1.5h1.5a.75.75 0 0 1 .75.75"/></svg>
